icons/file-paper-2-fill.svg

<svg xmlns="http://www.w3.org/2000/svg" width="24" height="24" fill="none"><g clip-path="url(#a)"><g><path fill="#121212" d="M20 2C20.7956 2 21.5587 2.31607 22.1213 2.87868C22.6839 3.44129 23 4.20435 23 5V7H21V19C21 19.7956 20.6839 20.5587 20.1213 21.1213C19.5587 21.6839 18.7956 22 18 22H4C3.20435 22 2.44129 21.6839 1.87868 21.1213C1.31607 20.5587 1 19.7956 1 19V17H17V19C17 19.2449 17.09 19.4813 17.2527 19.6644C17.4155 19.8474 17.6397 19.9643 17.883 19.993L18 20C18.2449 20 18.4813 19.91 18.6644 19.7473C18.8474 19.5845 18.9643 19.3603 18.993 19.117L19 19V15H3V5C3 4.20435 3.31607 3.44129 3.87868 2.87868C4.44129 2.31607 5.20435 2 6 2H20Z"/></g></g><defs><clipPath id="a"><rect width="24" height="24" fill="white"/></clipPath></defs></svg>

<svg width="24" height="24" fill="none" xmlns="http://www.w3.org/2000/svg"><g clip-path="url(#a)"><path d="M20 2a3 3 0 0 1 3 3v2h-2v12a3 3 0 0 1-3 3H4a3 3 0 0 1-3-3v-2h16v2a1 1 0 0 0 .883.993L18 20a1 1 0 0 0 .993-.883L19 19v-4H3V5a3 3 0 0 1 3-3h14Z" /></g><defs><clipPath id="a"><path fill="#fff" d="M0 0h24v24H0z"/></clipPath></defs></svg>
